X:6398
T:Swiss Cheese
R:reel
C:Dougie MacDonald
D:Fiddle Tunes
B:Cape Breton Fiddler Dougie MacDonald:Fiddle Tunes, 1993
N:Bookings,Mechanicals etc.
N:..... Dougie MacDonald <dougie@cranfordpub.com>
N:More tunes and information <http://www.cranfordpub.com/dougie>
Q:333
O:England
L:1/8
M:C|
K:Bb
FA|B/B/B dB fBdB|GE E/E/E eBGE|DFBd cfag|gff=e _ecAc|
B2 dB fBdB|GE E/E/E eBGE|DFBd cfag|gffA B2:|
|:z2|gf=ef d2 db|agg^f gecB|AFAg aFAc|gf=ef d2 df|
gf=ef d2 db|agg^f gecB|AFAg aFAB|cBBA B2:|
